X:1
T:Title
%%score 1 2
L:1/8
Q:1/4=98
M:4/4
K:G
V:1 treble nm="Grand Piano, Soprano"
V:2 bass nm="Choir Pad, Let Me a Friend to Man"
V:1
 D>G [GB]2 [GB]>[GB] [GB]2 | [DA]>[DG] [Ec]2 [CE]>[CE] [CE]2 | [DF]>[CE] [B,D]2 [B,D][B,D] [CE]2 | %3
w: By~Walter~Stillman~Martin,~1905 * * * * *|||
 [CD][CD] [B,D]6 | D[DG] [GB]2 [GB]>[GB] [GB]2 | [DA]>[DG] [Ec]2 [CE]>[CE] [CE]2 | %6
w: |||
 [DF]>[CE] [B,D]2 [B,G]>[B,G] [CA]2 | [DB]2 [B,G]6 | GG B2 [FB][FB] [EB]2 | %9
w: |||
 [AB][AB] [GB]2 [FB]2 [EB]2 | [GB]2 [EG]2 [EG][EG] [EA]2 | [E_B]2 [^D=B]6 | %12
w: |||
 D>[DG] [GB]2 [GB]>[GB] [GB]2 | [DA]>[DG] [Ec]2 [CE]>[CE] [CE]2 | %14
w: ||
 [DF][CE] [B,D]2 [B,G][B,G] [CA]2 | [DB]2 [B,G]6 | [DB]2 [Ec]2 [Ec]>[Ec] [Ec]2 | %17
w: |||
 [EG]>[Ec] [DB]2 [DB]2 [DB]2 | [DB]2 [DA]2 [DA]2 [^CG]2 | [^CE][CB] [DA]6 | %20
w: |||
 D>[DG] [GB]2 [GB]>[GB] [GB]2 | [DA]>[DG] [Ec]2 [CE]>[CE] [CE]2 | %22
w: ||
 [DF][CE] [B,D]2 [B,G][B,G] [CA]2 | [DB]2 [B,G]6- | [B,G]2 z2 z4 |] %25
w: |||
V:2
 [G,B,]>[G,B,] [G,D]2 [G,D]>[G,D] [G,D]2 | [G,C]>[G,B,] [C,G,]2 [C,G,]>[C,G,] [C,G,]2 | %2
 [C,G,]>[C,G,] [D,G,]2 [D,G,][D,G,] [D,F,]2 | [D,F,][D,F,] [G,,G,]6 | %4
 G,G, [G,D]2 [G,D]>[G,D] [G,D]2 | [G,C]>[G,B,] [C,G,]2 [C,G,]>[C,G,] [C,G,]2 | %6
 [C,G,]>[C,G,] [D,G,]2 [D,G,]>[D,G,] [D,F,]2 | [D,G,]2 [G,,D,]6 | G,G, B,2 [A,B,][A,B,] [G,B,]2 | %9
 [F,B,][F,B,] [E,B,]2 [^D,B,]2 [E,G,]2 | [E,B,]2 [C,C]2 [C,C][C,C] [C,C]2 | [C,C]2 [B,,F,]6 | %12
 [G,B,]>[G,B,] [G,D]2 [G,D]>[G,D] [G,D]2 | [G,C]>[G,B,] [C,G,]2 [C,G,]>[C,G,] [C,G,]2 | %14
 [D,G,]2 [D,G,]2 [D,G,][D,G,] [D,F,]2 | [D,G,]2 [G,,D,]6 | G,2 [C,G,]2 [C,G,]>[C,G,] [C,G,]2 | %17
 [C,C]>[C,G,] G,2 G,2 G,2 | G,2 [F,A,]2 [F,A,]2 [E,A,]2 | [A,,A,][A,,G,] [D,F,]6 | %20
 [G,B,]>[G,B,] [G,D]2 [G,D]>[G,D] [G,D]2 | [G,C]>[G,B,] [C,G,]2 [C,G,]>[C,G,] [C,G,]2 | %22
 [D,G,]2 [D,G,]2 [D,G,][D,G,] [D,F,]2 | [D,G,]2 [G,,D,]6- | [G,,D,]2 z2 z4 |] %25

